X:1
T:6 Lieder, Op.5
T:Zum Ossa sprach der Pelion
T:5. Zum Ossa sprach der Pelion
T:Peter Cornelius
T:Annette von Droste-Hülshoff
T:6 Lieder, Op.5
T:Creative Commons copyright waiver (CC0 1.0 Universal) 
T:Creative Commons copyright waiver (CC0 1.0 Universal) 
C:Peter Cornelius
Z:Annette von Droste-Hülshoff
Z:Creative Commons copyright waiver (CC0 1.0 Universal)
Z:
L:1/8
M:4/4
K:C
V:1 treble nm="Voice" snm="Vo."
V:1
 z8 | z8 | z8 | z4 z2 z E | A2 A2 A3 A | c3 _A F4 | z2 G2 G2 _EF | G6 =EC | F4 E2 z2 | %9
w: |||Zum|Os- sa sprach der|Pe- li- on:|Was ist für ein|Klang in den|Lüf- ten?|
 ^G2 GA B2 BB | d3 B ^G2 z2 | A^G (3AA_B c2 cc | _e4 d2 z2 | G2 GG G2 G2 | G2 G^G A3 A | %15
w: Singt wohl die ster- ben- de|Nach- ti- gall?|o der ei- ne ver- sto- sse- ne|Hou- ri?|Sechs- tau- send Jah- re|mach- ten mich grau, und|
 A3 A A3 A | _B4 C2 z2 | F2 F2 _AA FA | _d3 F =E2 z2 | z E EE A2 AA | c4 B2 z B | ^c3 c =c3 c | %22
w: sech- zig- tau- send|Stun- den:|sehn- mal fie- len mei- ne|Ce- dern hin,|und mei- ne Fel- sen ver-|wit- tern, doch|nie drang solch ein|
 c3 B A2 z A | _B4 FF EF | A4 ^G2 z2 | z4 z2 EE | c2 cc c3 _A | G4 z2 _e2 | d4 c4- | c2 =BA G2 F2 | %30
w: Ton zu mir vom|Tal o- der aus der|Hö- he!|Ei ne|Mut- ter am Han- ge|steht, die|weint *|* ihr * ein- zig|
 F4 E2 z2 | z8 | z8 |] %33
w: Söhn- lein!|||

